svgs/duotone/message-sms.svg

<svg xmlns="http://www.w3.org/2000/svg" viewBox="0 0 512 512"><!--! Font Awesome Pro 6.3.0 by @fontawesome - https://fontawesome.com License - https://fontawesome.com/license (Commercial License) Copyright 2023 Fonticons, Inc. --><defs><style>.fa-secondary{opacity:.4}</style></defs><path class="fa-primary" d="M124.4 192.6C113.6 189.5 103.2 187.2 104.2 181.5c.7813-4.5 10.28-6.562 21.5-4.906c4.156 .6562 8.75 2.094 13.09 3.594c8.375 2.906 17.47-1.562 20.34-9.906c2.875-8.344-1.562-17.47-9.906-20.34C143.1 147.8 136.5 145.9 130.6 145c-30.69-4.812-53.94 7.719-58 31.09c-5.656 33.03 26.5 42.47 38.63 46c13.72 3.947 25.62 6.432 24.56 12.34C135 239 125.7 241.1 114.3 239.4C107.9 238.4 100.4 235.4 93.38 232.9c-8.375-2.969-16 1.875-18.97 10.19S77.19 261.1 85.5 264.1C92.81 266.8 101.1 269.8 109.4 271C113.7 271.7 117.9 272 121.1 272c24.28 0 41.94-12.03 45.38-32.13C173.1 206.5 141.4 197.5 124.4 192.6zM309.1 144.8c-6.469-2.062-13.72 .0625-17.88 5.594L256 197.3L220.8 150.4C216.7 144.9 209.4 142.7 202.9 144.8C196.4 147 192 153.1 192 160v96c0 8.844 7.156 16 16 16S224 264.8 224 256V208l19.19 25.59c6.062 8.062 19.56 8.062 25.62 0L288 208V256c0 8.844 7.156 16 16 16S320 264.8 320 256V160C320 153.1 315.6 147 309.1 144.8zM396.4 192.6C385.6 189.5 375.2 187.2 376.2 181.5c.7813-4.5 10.31-6.562 21.5-4.906c4.156 .6562 8.75 2.094 13.09 3.594c8.406 2.906 17.47-1.562 20.34-9.906c2.875-8.344-1.562-17.47-9.906-20.34c-6.156-2.125-12.69-4.062-18.59-4.969c-30.75-4.812-53.97 7.719-58 31.09c-5.656 33.03 26.5 42.47 38.63 46c13.72 3.947 25.62 6.432 24.56 12.34c-.7813 4.562-10.12 6.656-21.56 4.938c-6.342-.9883-13.9-3.939-20.88-6.438c-8.375-2.969-16 1.875-18.97 10.19s2.781 17.97 11.09 20.97c7.312 2.656 15.62 5.656 23.88 6.906C385.7 271.7 389.9 272 393.1 272c24.28 0 41.94-12.03 45.38-32.13C445.1 206.5 413.4 197.5 396.4 192.6z"/><path class="fa-secondary" d="M448-.0004H64c-35.25 0-64 28.75-64 63.1v287.1c0 35.25 28.75 63.1 64 63.1h96v83.98c0 9.75 11.25 15.45 19.12 9.7L304 415.1H448c35.25 0 64-28.75 64-63.1V63.1C512 28.75 483.3-.0004 448-.0004zM167.3 239.9C163.9 259.1 146.3 272 121.1 272c-4.031 0-8.25-.3125-12.59-1C101.1 269.8 92.81 266.8 85.5 264.1c-8.312-3-14.06-12.66-11.09-20.97S85 229.1 93.38 232.9c6.979 2.498 14.53 5.449 20.88 6.438C125.7 241.1 135 239 135.8 234.4c1.053-5.912-10.84-8.396-24.56-12.34c-12.12-3.531-44.28-12.97-38.63-46c4.062-23.38 27.31-35.91 58-31.09c5.906 .9062 12.44 2.844 18.59 4.969c8.344 2.875 12.78 12 9.906 20.34C156.3 178.7 147.2 183.1 138.8 180.2c-4.344-1.5-8.938-2.938-13.09-3.594c-11.22-1.656-20.72 .4062-21.5 4.906C103.2 187.2 113.6 189.5 124.4 192.6C141.4 197.5 173.1 206.5 167.3 239.9zM320 256c0 8.844-7.156 16-16 16S288 264.8 288 256V208l-19.19 25.59c-6.062 8.062-19.56 8.062-25.62 0L224 208V256c0 8.844-7.156 16-16 16S192 264.8 192 256V160c0-6.875 4.406-13 10.94-15.19c6.5-2.094 13.72 .0625 17.88 5.594L256 197.3l35.19-46.94c4.156-5.531 11.41-7.656 17.88-5.594C315.6 147 320 153.1 320 160V256zM439.3 239.9C435.9 259.1 418.3 272 393.1 272c-4.031 0-8.25-.3125-12.59-1c-8.25-1.25-16.56-4.25-23.88-6.906c-8.312-3-14.06-12.66-11.09-20.97s10.59-13.16 18.97-10.19c6.979 2.498 14.53 5.449 20.88 6.438c11.44 1.719 20.78-.375 21.56-4.938c1.053-5.912-10.84-8.396-24.56-12.34c-12.12-3.531-44.28-12.97-38.63-46c4.031-23.38 27.25-35.91 58-31.09c5.906 .9062 12.44 2.844 18.59 4.969c8.344 2.875 12.78 12 9.906 20.34c-2.875 8.344-11.94 12.81-20.34 9.906c-4.344-1.5-8.938-2.938-13.09-3.594c-11.19-1.656-20.72 .4062-21.5 4.906C375.2 187.2 385.6 189.5 396.4 192.6C413.4 197.5 445.1 206.5 439.3 239.9z"/></svg>

<svg xmlns="http://www.w3.org/2000/svg" viewBox="0 0 512 512"><!-- Font Awesome Pro 6.0.0-alpha2 by @fontawesome - https://fontawesome.com License - https://fontawesome.com/license (Commercial License) --><defs><style>.fa-secondary{opacity:.4}</style></defs><path d="M448 0H64C28.75 0 0 28.748 0 63.994V352C0 387.246 28.75 415.994 64 415.994H160V499.959C160 509.709 171.25 515.459 179.125 509.709L304 415.994H448C483.25 415.994 512 387.246 512 352V63.994C512 28.748 483.25 0 448 0ZM167.344 239.875C163.906 259.969 146.25 272 121.969 272C117.937 272 113.719 271.688 109.375 271C101.125 269.75 92.812 266.75 85.5 264.094C77.188 261.094 71.438 251.438 74.406 243.125S85 229.969 93.375 232.938C100.354 235.436 107.908 238.387 114.25 239.375C125.656 241.094 135.031 239 135.812 234.438C136.865 228.525 124.969 226.041 111.25 222.094C99.125 218.562 66.969 209.125 72.625 176.094C76.688 152.719 99.938 140.188 130.625 145C136.531 145.906 143.063 147.844 149.219 149.969C157.563 152.844 162 161.969 159.125 170.312S147.156 183.125 138.781 180.219C134.438 178.719 129.844 177.281 125.688 176.625C114.469 174.969 104.969 177.031 104.188 181.531C103.164 187.164 113.611 189.51 124.406 192.594C141.438 197.469 173.125 206.531 167.344 239.875ZM320 256C320 264.844 312.844 272 304 272S288 264.844 288 256V208L268.812 233.594C262.75 241.656 249.25 241.656 243.188 233.594L224 208V256C224 264.844 216.844 272 208 272S192 264.844 192 256V160C192 153.125 196.406 147 202.938 144.812C209.438 142.719 216.656 144.875 220.813 150.406L256 197.344L291.188 150.406C295.344 144.875 302.594 142.75 309.063 144.812C315.594 147 320 153.125 320 160V256ZM439.344 239.875C435.906 259.969 418.25 272 393.969 272C389.937 272 385.719 271.688 381.375 271C373.125 269.75 364.812 266.75 357.5 264.094C349.187 261.094 343.437 251.438 346.406 243.125S357 229.969 365.375 232.938C372.354 235.436 379.908 238.387 386.25 239.375C397.687 241.094 407.031 239 407.812 234.438C408.865 228.525 396.969 226.041 383.25 222.094C371.125 218.562 338.969 209.125 344.625 176.094C348.656 152.719 371.875 140.188 402.625 145C408.531 145.906 415.062 147.844 421.219 149.969C429.562 152.844 434 161.969 431.125 170.312S419.187 183.125 410.781 180.219C406.437 178.719 401.844 177.281 397.687 176.625C386.5 174.969 376.969 177.031 376.187 181.531C375.164 187.164 385.611 189.51 396.406 192.594C413.438 197.469 445.125 206.531 439.344 239.875Z" class="fa-secondary"/><path d="M124.442 192.594C113.647 189.51 103.2 187.164 104.224 181.531C105.005 177.031 114.505 174.969 125.724 176.625C129.88 177.281 134.474 178.719 138.817 180.219C147.192 183.125 156.286 178.656 159.161 170.313S157.599 152.844 149.255 149.969C143.099 147.844 136.567 145.906 130.661 145C99.974 140.188 76.724 152.719 72.661 176.094C67.005 209.125 99.161 218.562 111.286 222.094C125.005 226.041 136.901 228.525 135.849 234.438C135.067 239 125.692 241.094 114.286 239.375C107.944 238.387 100.39 235.436 93.411 232.938C85.036 229.969 77.411 234.813 74.442 243.125S77.224 261.094 85.536 264.094C92.849 266.75 101.161 269.75 109.411 271C113.755 271.688 117.974 272 122.005 272C146.286 272 163.942 259.969 167.38 239.875C173.161 206.531 141.474 197.469 124.442 192.594ZM309.099 144.812C302.63 142.75 295.38 144.875 291.224 150.406L256.036 197.344L220.849 150.406C216.692 144.875 209.474 142.719 202.974 144.812C196.442 147 192.036 153.125 192.036 160V256C192.036 264.844 199.192 272 208.036 272S224.036 264.844 224.036 256V208L243.224 233.594C249.286 241.656 262.786 241.656 268.849 233.594L288.036 208V256C288.036 264.844 295.192 272 304.036 272S320.036 264.844 320.036 256V160C320.036 153.125 315.63 147 309.099 144.812ZM396.442 192.594C385.647 189.51 375.2 187.164 376.224 181.531C377.005 177.031 386.536 174.969 397.724 176.625C401.88 177.281 406.474 178.719 410.817 180.219C419.224 183.125 428.286 178.656 431.161 170.313S429.599 152.844 421.255 149.969C415.099 147.844 408.567 145.906 402.661 145C371.911 140.188 348.692 152.719 344.661 176.094C339.005 209.125 371.161 218.563 383.286 222.094C397.005 226.041 408.901 228.525 407.849 234.438C407.067 239 397.724 241.094 386.286 239.375C379.944 238.387 372.39 235.436 365.411 232.938C357.036 229.969 349.411 234.813 346.442 243.125S349.224 261.094 357.536 264.094C364.849 266.75 373.161 269.75 381.411 271C385.755 271.688 389.974 272 394.005 272C418.286 272 435.942 259.969 439.38 239.875C445.161 206.531 413.474 197.469 396.442 192.594Z" class="fa-primary"/></svg>
